src/categories-icons-sprite/categories/svg-cat-women-shoes.svg

<svg width="31" height="25" viewBox="0 0 31 25" fill="none" xmlns="http://www.w3.org/2000/svg">
<path class="p-AE2538" d="M21.5883 1.78564H15.2981C14.805 1.78564 14.4053 2.18539 14.4053 2.6785C14.4053 3.17161 14.805 3.57136 15.2981 3.57136H21.5883V1.78564Z" fill="#A1D1FD"/>
<path class="p-FF637B" d="M24.2262 0H22.0833L12.5654 17.5179C12.0297 18.5 10.7262 19.0178 9.7797 18.4107C8.86911 17.8393 9.04762 17.1786 9.04762 16.0714H8.15476C7.85125 16.0714 7.54756 16.0893 7.2619 16.1249C4.08327 16.4821 1.42256 18.7679 0.636845 21.9464C0.308397 23.5213 1.51056 25 3.11933 25H11.1905C13.494 25 15.619 23.7321 16.7083 21.6786L21.869 11.9643L22.4762 25H26.9048V11.2202C26.9048 9.09522 27.9226 8.07137 30.4762 6.80357V6.25C30.4762 2.80357 27.6726 0 24.2262 0Z" fill="#58ADE5"/>
<path class="p-E63950" d="M30.476 6.25V6.80357C27.9224 8.07137 26.9046 9.09522 26.9046 11.2202V25H22.4761L21.8689 11.9643L16.7081 21.6786C15.6189 23.7321 13.4939 25 11.1903 25H7.26172V16.1249C7.54737 16.0893 7.85106 16.0714 8.15458 16.0714H9.04743C9.04743 17.1786 8.86892 17.8393 9.77952 18.4107C10.726 19.0178 12.0295 18.5 12.5652 17.5179L22.0831 0H24.226C27.6724 0 30.476 2.80357 30.476 6.25Z" fill="#4D98CB"/>
<path class="p-FFDA2D" d="M7.26186 12.5C5.26186 12.5 3.69043 13.6785 3.69043 15.1786C3.69043 16.6785 5.26186 17.8571 7.26186 17.8571C9.26186 17.8571 10.8333 16.6785 10.8333 15.1786C10.8333 13.6785 9.26186 12.5 7.26186 12.5Z" fill="#B9DFFC"/>
<path class="p-FDBF00" d="M10.8331 15.1786C10.8331 16.6785 9.26172 17.8571 7.26172 17.8571V12.5C9.26172 12.5 10.8331 13.6785 10.8331 15.1786Z" fill="#A1D1FD"/>
</svg>

<svg width="31" height="25" fill="none" xmlns="http://www.w3.org/2000/svg"><path class="p-AE2538" d="M21.588 1.786h-6.29a.893.893 0 000 1.785h6.29V1.786z" fill="#A1D1FD"/><path class="p-FF637B" d="M24.226 0h-2.143l-9.518 17.518c-.535.982-1.839 1.5-2.785.893-.91-.572-.732-1.232-.732-2.34h-.893c-.304 0-.607.018-.893.054a7.703 7.703 0 00-6.625 5.821A2.536 2.536 0 003.119 25h8.072a6.243 6.243 0 005.517-3.321l5.161-9.715L22.476 25h4.429V11.22c0-2.125 1.018-3.149 3.571-4.416V6.25A6.257 6.257 0 0024.226 0z" fill="#58ADE5"/><path class="p-E63950" d="M30.476 6.25v.554c-2.554 1.267-3.571 2.291-3.571 4.416V25h-4.429l-.607-13.036-5.16 9.715A6.243 6.243 0 0111.19 25H7.262v-8.875c.285-.036.59-.054.893-.054h.892c0 1.108-.178 1.768.733 2.34.946.607 2.25.089 2.785-.893L22.083 0h2.143a6.257 6.257 0 016.25 6.25z" fill="#4D98CB"/><path class="p-FFDA2D" d="M7.262 12.5c-2 0-3.572 1.178-3.572 2.679 0 1.5 1.572 2.678 3.572 2.678s3.571-1.178 3.571-2.678S9.262 12.5 7.262 12.5z" fill="#B9DFFC"/><path class="p-FDBF00" d="M10.833 15.179c0 1.5-1.571 2.678-3.571 2.678V12.5c2 0 3.571 1.178 3.571 2.679z" fill="#A1D1FD"/></svg>
